X:1
T:What's going on in Brazil
C:Franco Micalizzi
Z:All Rights Reserved
L:1/4
M:4/4
K:C
V:1 treble nm="Alto Saxophone"
V:1
 G ^F G F | G ^F G F/G/ | G/^F/ G/ c2 G/ | F _E F ^F/G/ | _E E C2 | G ^F G F | G ^F G F/G/ | %7
 _B =B _B/d/ c | G ^F G _B | G G G z | c B _B G | _E C z z | _A F G _E | F _B A _A | F _d _B _E | %15
 _E F ^F G |] %16

